X:238
T:Dale la vuelta, Pepe (CT 042)
R:Xiraldilla
C:Tradicional
S:Msica Tradicional Asturiana, (C) Tello & Tito. Asturies, 2001.
S:http://pagina.de/MusTradAst <telloytito@asturies.org>
N:Xiraldilla, dictada por Catalina Muiz Llano, de cincuenta aos, de Llamo, ayuntamiento de Riosa.
A:Asturies
O:Llamo (Riosa)
Z:Cancioneru de Torner 042
M:2/4
L:1/8
Q:1/4=138
K:C
B|:Bc cc|BA dd|d2 c2|[1 B2 zB:|[2 B4||
zG GA|B2 A2|GG GA|B2 A2|G2z||
W:Dale la vuelta, Pepe,
W:dale la vuelta,
W:que quiero ver el forro
W:de tu chaqueta.
W:Que dale la vuelta,
W:que dale la vuelta.
W:
